Numix/24/status/teamviewer-indicator-connected.svg

<?xml version="1.0" encoding="UTF-8" standalone="no"?>
<svg
   xmlns:dc="http://purl.org/dc/elements/1.1/"
   xmlns:cc="http://creativecommons.org/ns#"
   xmlns:rdf="http://www.w3.org/1999/02/22-rdf-syntax-ns#"
   xmlns:svg="http://www.w3.org/2000/svg"
   xmlns="http://www.w3.org/2000/svg"
   xmlns:sodipodi="http://sodipodi.sourceforge.net/DTD/sodipodi-0.dtd"
   xmlns:inkscape="http://www.inkscape.org/namespaces/inkscape"
   width="24"
   viewBox="0 0 6.7733335 6.7733335"
   height="24"
   id="svg2"
   version="1.1"
   inkscape:version="0.91 r"
   sodipodi:docname="teamviewer-indicator-connected.svg">
  <metadata
     id="metadata12">
    <rdf:RDF>
      <cc:Work
         rdf:about="">
        <dc:format>image/svg+xml</dc:format>
        <dc:type
           rdf:resource="http://purl.org/dc/dcmitype/StillImage" />
        <dc:title></dc:title>
      </cc:Work>
    </rdf:RDF>
  </metadata>
  <sodipodi:namedview
     pagecolor="#ffffff"
     bordercolor="#666666"
     borderopacity="1"
     objecttolerance="10"
     gridtolerance="10"
     guidetolerance="10"
     inkscape:pageopacity="0"
     inkscape:pageshadow="2"
     inkscape:window-width="1920"
     inkscape:window-height="1056"
     id="namedview10"
     showgrid="true"
     inkscape:zoom="22.627417"
     inkscape:cx="6.5615341"
     inkscape:cy="7.1874361"
     inkscape:window-x="0"
     inkscape:window-y="24"
     inkscape:window-maximized="1"
     inkscape:current-layer="svg2">
    <inkscape:grid
       type="xygrid"
       id="grid3815" />
  </sodipodi:namedview>
  <defs
     id="defs4" />
  <path
     style="fill:#ececec;fill-opacity:1;fill-rule:evenodd;stroke:none;stroke-width:0.28222221px;stroke-linecap:butt;stroke-linejoin:miter;stroke-opacity:1"
     d="M 1.6933333,3.3865962 2.54,2.5399295 l 0,0.5644444 1.6933333,0 0,-0.5644444 0.8466666,0.8466666 -0.8466666,0.8466668 0,-0.5644445 -1.6933333,0 0,0.5644444 z"
     id="path4136"
     inkscape:connector-curvature="0"
     sodipodi:nodetypes="ccccccccccc" />
  <g
     style="stroke:none;stroke-width:1.5998292;stroke-miterlimit:4;stroke-dasharray:none;stroke-opacity:1"
     transform="matrix(0.2494782,-0.2494782,-0.2494782,-0.2494782,34.827574,90.210141)"
     id="g4150" />
  <path
     sodipodi:nodetypes="ccccccc"
     inkscape:connector-curvature="0"
     style="fill:#ececec;fill-opacity:1;fill-rule:nonzero;stroke:none;stroke-width:2.9996798;stroke-miterlimit:4;stroke-dasharray:none;stroke-opacity:1"
     d="M 5.8811822,3.8813528 6.2803049,4.2804754 4.4842536,6.0765267 3.3866667,4.9789398 3.7857892,4.5798172 4.4842536,5.2782816 Z"
     id="path4158" />
  <path
     style="color:#000000;font-style:normal;font-variant:normal;font-weight:normal;font-stretch:normal;font-size:medium;line-height:normal;font-family:sans-serif;text-indent:0;text-align:start;text-decoration:none;text-decoration-line:none;text-decoration-style:solid;text-decoration-color:#000000;letter-spacing:normal;word-spacing:normal;text-transform:none;direction:ltr;block-progression:tb;writing-mode:lr-tb;baseline-shift:baseline;text-anchor:start;white-space:normal;clip-rule:nonzero;display:inline;overflow:visible;visibility:visible;opacity:1;isolation:auto;mix-blend-mode:normal;color-interpolation:sRGB;color-interpolation-filters:linearRGB;solid-color:#000000;solid-opacity:1;fill:#ececec;fill-opacity:1;fill-rule:nonzero;stroke:none;stroke-width:0.56444442;stroke-linecap:butt;stroke-linejoin:miter;stroke-miterlimit:4;stroke-dasharray:none;stroke-dashoffset:0;stroke-opacity:1;color-rendering:auto;image-rendering:auto;shape-rendering:auto;text-rendering:auto;enable-background:accumulate"
     d="m 3.3855643,0.8465962 c -1.3994606,0 -2.53889763,1.139437 -2.53889763,2.5388976 0,1.3994604 1.13943703,2.5411023 2.53889763,2.5411023 0.110825,0 0.2191678,-0.00982 0.3263194,-0.023701 L 3.1568099,5.3483713 C 2.1713131,5.2352899 1.4111112,4.4023195 1.4111111,3.3854938 c 0,-1.0944122 0.880041,-1.9744531 1.9744532,-1.9744532 1.094412,0 1.9766579,0.880041 1.9766579,1.9744532 0,0.1647582 -0.022383,0.3239499 -0.060083,0.4768011 L 5.5810547,3.5828286 5.8820182,3.2824163 5.9233592,3.3237576 C 5.8900508,1.9529612 4.7641789,0.8465962 3.3855643,0.8465962 Z"
     id="path4137"
     inkscape:connector-curvature="0" />
</svg>

<svg xmlns="http://www.w3.org/2000/svg" width="24" viewBox="0 0 6.7733335 6.7733335" height="24">
 <path d="m 1.693 3.387 0.847 -0.847 l 0 0.564 1.693 0 0 -0.564 0.847 0.847 -0.847 0.847 0 -0.564 -1.693 0 0 0.564 z" style="fill:#ececec;fill-opacity:1;stroke:none;fill-rule:evenodd"/>
 <path d="m 5.881 3.881 0.399 0.399 -1.796 1.796 -1.098 -1.098 0.399 -0.399 0.698 0.698" style="fill:#ececec;fill-opacity:1;stroke:none;fill-rule:nonzero"/>
 <path d="m 3.386 0.847 c -1.399 0 -2.539 1.139 -2.539 2.539 0 1.399 1.139 2.541 2.539 2.541 0.111 0 0.219 -0.01 0.326 -0.024 l -0.555 -0.555 c -0.985 -0.113 -1.746 -0.946 -1.746 -1.963 c 0 -1.094 0.88 -1.974 1.974 -1.974 1.094 0 1.977 0.88 1.977 1.974 0 0.165 -0.022 0.324 -0.06 0.477 l 0.279 -0.279 0.301 -0.3 0.041 0.041 c -0.033 -1.371 -1.159 -2.477 -2.538 -2.477" mix-blend-mode="normal" isolation="auto" white-space="normal" solid-opacity="1" solid-color="#000000" style="visibility:visible;shape-rendering:auto;color-interpolation-filters:linearRGB;fill:#ececec;opacity:1;image-rendering:auto;fill-opacity:1;stroke:none;display:inline;color:#000;fill-rule:nonzero;color-rendering:auto;color-interpolation:sRGB"/>
</svg>
